communes/6248.svg

<?xml version="1.0" encoding="UTF-8"?>
<svg version="1.0" viewBox="0 0 950.8 1001.2" xmlns="http://www.w3.org/2000/svg" xmlns:cc="http://creativecommons.org/ns#" xmlns:dc="http://purl.org/dc/elements/1.1/" xmlns:rdf="http://www.w3.org/1999/02/22-rdf-syntax-ns#" xmlns:xlink="http://www.w3.org/1999/xlink">
<title>Blason de Sierre, Valais</title>
<metadata>
<rdf:RDF>
<cc:Work rdf:about="">
<dc:format>image/svg+xml</dc:format>
<dc:type rdf:resource="http://purl.org/dc/dcmitype/StillImage"/>
<dc:title>Blason de Sierre, Valais</dc:title>
<dc:date>2011-01-15</dc:date>
<dc:creator>
<cc:Agent>
<dc:title>Owen Blacker</dc:title>
</cc:Agent>
</dc:creator>
<cc:license rdf:resource="http://web.resource.org/cc/PublicDomain"/>
<dc:language>en-GB</dc:language>
<dc:subject>
<rdf:Bag>
<rdf:li>Wappen Solms</rdf:li>
</rdf:Bag>
</dc:subject>
<dc:rights>
<cc:Agent>
<dc:title/>
</cc:Agent>
</dc:rights>
<dc:publisher>
<cc:Agent>
<dc:title/>
</cc:Agent>
</dc:publisher>
<dc:identifier/>
<dc:source/>
<dc:relation/>
<dc:coverage/>
<dc:description/>
<dc:contributor>
<cc:Agent>
<dc:title>Owen Blacker</dc:title>
</cc:Agent>
</dc:contributor>
</cc:Work>
<cc:License rdf:about="http://web.resource.org/cc/PublicDomain">
<cc:permits rdf:resource="http://web.resource.org/cc/Reproduction"/>
<cc:permits rdf:resource="http://web.resource.org/cc/Distribution"/>
<cc:permits rdf:resource="http://web.resource.org/cc/DerivativeWorks"/>
</cc:License>
</rdf:RDF>
</metadata>
<g transform="matrix(5.1074 0 0 5.1074 -9.7997 -10.102)">
<path d="m3.9187 3.9779h182.16l-3.9946 92.733c-3.3098 76.835-47.389 99.307-87.087 99.307-39.697 0-84.977-26.422-87.662-99.265l-3.4192-92.774z" fill="#e20909"/>
</g>
<g transform="matrix(2.4665 0 0 2.4665 475.76 461.45)" fill="#fcbf49" stroke="#843511" stroke-width="1.5">
<g id="e">
<g id="b">
<g id="c">
<g id="d">
<path d="m-8 0 6 159.5s0 3 2 3 2-3 2-3l6-159.5"/>
<path d="M -4,0 0,109.5 4,0" fill="#843511" stroke="none"/>
<g transform="matrix(.97992 .19937 -.19937 .97992 0 0)">
<path d="m-4.5 53.5c-5 21.5 6 36 0.5 55s3 32 4 40-5 11.5-3 13 8-3.5 8.5-14.5-7-15.75-0.5-39-4-31 3-52"/>
<path d="m-1 58c-3 21 7 32.5 1 51 8-14-2-28 3-50" fill="#843511" stroke="none"/>
</g>
</g>
<use transform="scale(-1)" width="744.09448" height="1052.3622" xlink:href="#d"/>
</g>
<use transform="rotate(90)" width="744.09448" height="1052.3622" xlink:href="#c"/>
</g>
<use transform="matrix(.70711 .70711 -.70711 .70711 0 0)" width="744.09448" height="1052.3622" xlink:href="#b"/>
</g>
<use transform="matrix(.92388 .38268 -.38268 .92388 0 0)" width="744.09448" height="1052.3622" xlink:href="#e"/>
<circle r="65" d="M 65,0 C 65,35.898509 35.898509,65 0,65 -35.898509,65 -65,35.898509 -65,0 c 0,-35.898509 29.101491,-65 65,-65 35.898509,0 65,29.101491 65,65 z" stroke-width="1"/>
<g id="a" fill="#843511" stroke="none">
<path d="m41-14c-11.5-10-26-11.5-34-4a140 50 10 0 0 1.5 26.5c-0.5 0-1.5 0.5-2 1a80 50 10 0 1-2.5-28.5c11-9 26-10 37 5"/>
<path d="m23-17c-6.5 0-8 1.5-11 4s-4.5 2-5 2.5 0 2 1 1.5 3-1.5 6-4 6-2.5 9-2.5c9 0 14 7.5 15 7s-5-8.5-15-8.5"/>
<path d="m34.5-8.5c-6.5-7-18.5-7.5-23.5 0.5h2c5-8 17-4.5 18-1v1"/>
<circle cx="22" cy="-9" r="4.5" d="m 26.5,-9 c 0,2.4852814 -2.014719,4.5 -4.5,4.5 -2.485281,0 -4.5,-2.0147186 -4.5,-4.5 0,-2.485281 2.014719,-4.5 4.5,-4.5 2.485281,0 4.5,2.014719 4.5,4.5 z"/>
<path d="m11-8c5 4.5 16 5 23.5-0.5l-3.5-0.5c-5 5.5-13 5-18 1v-1"/>
<path d="m35-6c-8.5 6.5-17 6-22 3s-5-4-4-4 2 1 6 3 10 2 20-2"/>
<path d="m10.5 9a3 3 0 1 1-4 3c-0.5 1-2.5 4-6.5 4h-1l1 1.5c1 0 4 0 6-1.5a4.5 4.5 0 1 0 4.5-7"/>
<path d="m16.5 30c-4.5-3-6.5-7.5-11.5-7.5-1 0-3 0.5-5 1.5h-1l1 1.5c2 0 5-2.5 8.5-0.5s5.5 4 8 5"/>
<path d="m15 30c-10-3-12-1-15-1h-1l1 2c4 0 6-3 15-1"/>
<path d="m16.5 30c-11-1-7.5 5.5-16.5 5.5h-1l1 1.5c11 0 6-6 16.5-7"/>
<path d="m9 46a9 9 0 0 0-18 0 9.25 9.25 0 0 1 18 0"/>
</g>
<use transform="scale(-1,1)" width="744.09448" height="1052.3622" xlink:href="#a"/>
</g>
<g transform="matrix(5.1074 0 0 5.1074 -9.7997 -10.102)">
<path d="m3.9187 3.9779h182.16l-3.9946 92.733c-3.3098 76.835-47.389 99.307-87.087 99.307-39.697 0-84.977-26.422-87.662-99.265l-3.4192-92.774z" fill="none" stroke="#000" stroke-width="4"/>
</g>
</svg>

<?xml version="1.0" encoding="UTF-8" standalone="no"?>
<!-- Created with Inkscape (http://www.inkscape.org/) -->

<svg
   xmlns:dc="http://purl.org/dc/elements/1.1/"
   xmlns:cc="http://creativecommons.org/ns#"
   xmlns:rdf="http://www.w3.org/1999/02/22-rdf-syntax-ns#"
   xmlns:svg="http://www.w3.org/2000/svg"
   xmlns="http://www.w3.org/2000/svg"
   xmlns:xlink="http://www.w3.org/1999/xlink"
   xmlns:sodipodi="http://sodipodi.sourceforge.net/DTD/sodipodi-0.dtd"
   xmlns:inkscape="http://www.inkscape.org/namespaces/inkscape"
   width="950.80396"
   height="1001.2471"
   id="svg2"
   sodipodi:version="0.32"
   inkscape:version="0.48.5 r10040"
   version="1.0"
   sodipodi:docname="Blason de Sierre, Valais.svg"
   inkscape:output_extension="org.inkscape.output.svg.inkscape">
  <title
     id="title3752">Blason de Sierre, Valais</title>
  <defs
     id="defs4">
    <inkscape:perspective
       sodipodi:type="inkscape:persp3d"
       inkscape:vp_x="0 : 500.62354 : 1"
       inkscape:vp_y="0 : 1000 : 0"
       inkscape:vp_z="950.80396 : 500.62354 : 1"
       inkscape:persp3d-origin="475.40198 : 333.74902 : 1"
       id="perspective51" />
    <linearGradient
       id="linearGradient2893">
      <stop
         offset="0"
         style="stop-color:#ffffff;stop-opacity:0.3137255"
         id="stop2895" />
      <stop
         offset="0.19"
         style="stop-color:#ffffff;stop-opacity:0.25098041"
         id="stop2897" />
      <stop
         offset="0.60000002"
         style="stop-color:#6b6b6b;stop-opacity:0.1254902"
         id="stop2901" />
      <stop
         offset="1"
         style="stop-color:#000000;stop-opacity:0.1254902"
         id="stop2899" />
    </linearGradient>
  </defs>
  <sodipodi:namedview
     id="base"
     pagecolor="#ffffff"
     bordercolor="#666666"
     borderopacity="1.0"
     inkscape:pageopacity="0.0"
     inkscape:pageshadow="2"
     inkscape:zoom="0.45"
     inkscape:cx="371.31437"
     inkscape:cy="485.35285"
     inkscape:document-units="px"
     inkscape:current-layer="charges"
     showgrid="false"
     inkscape:window-width="834"
     inkscape:window-height="690"
     inkscape:window-x="-1"
     inkscape:window-y="0"
     inkscape:window-maximized="0" />
  <metadata
     id="metadata7">
    <rdf:RDF>
      <cc:Work
         rdf:about="">
        <dc:format>image/svg+xml</dc:format>
        <dc:type
           rdf:resource="http://purl.org/dc/dcmitype/StillImage" />
        <dc:title>Blason de Sierre, Valais</dc:title>
        <dc:date>2011-01-15</dc:date>
        <dc:creator>
          <cc:Agent>
            <dc:title>Owen Blacker</dc:title>
          </cc:Agent>
        </dc:creator>
        <cc:license
           rdf:resource="http://web.resource.org/cc/PublicDomain" />
        <dc:language>en-GB</dc:language>
        <dc:subject>
          <rdf:Bag>
            <rdf:li>Wappen Solms</rdf:li>
          </rdf:Bag>
        </dc:subject>
        <dc:rights>
          <cc:Agent>
            <dc:title />
          </cc:Agent>
        </dc:rights>
        <dc:publisher>
          <cc:Agent>
            <dc:title />
          </cc:Agent>
        </dc:publisher>
        <dc:identifier />
        <dc:source />
        <dc:relation />
        <dc:coverage />
        <dc:description />
        <dc:contributor>
          <cc:Agent>
            <dc:title>Owen Blacker</dc:title>
          </cc:Agent>
        </dc:contributor>
      </cc:Work>
      <cc:License
         rdf:about="http://web.resource.org/cc/PublicDomain">
        <cc:permits
           rdf:resource="http://web.resource.org/cc/Reproduction" />
        <cc:permits
           rdf:resource="http://web.resource.org/cc/Distribution" />
        <cc:permits
           rdf:resource="http://web.resource.org/cc/DerivativeWorks" />
      </cc:License>
    </rdf:RDF>
  </metadata>
  <g
     inkscape:label="Field"
     inkscape:groupmode="layer"
     id="field"
     transform="matrix(5.1073859,0,0,5.1073859,-9.7996864,-10.10181)">
    <path
       sodipodi:nodetypes="ccszsc"
       id="path3156"
       d="m 3.9187284,3.9778826 182.1625416,0 -3.99459,92.7325464 C 178.7769,173.54556 134.69793,196.01693 95,196.01693 c -39.697059,0 -84.977417,-26.42184 -87.662072,-99.265169 L 3.9187284,3.9778826 z"
       style="fill:#e20909;stroke:none"
       inkscape:label="Gules"
       inkscape:connector-curvature="0" />
  </g>
  <g
     inkscape:label="Charges"
     inkscape:groupmode="layer"
     id="charges">
    <g
       style="fill:#fcbf49;stroke:#843511;stroke-width:1.5"
       transform="matrix(2.4665274,0,0,2.4665274,475.75881,461.44977)"
       id="sun">
      <g
         id="16rays">
        <g
           id="8rays">
          <g
             id="4rays">
            <g
               id="2rays">
              <path
                 inkscape:connector-curvature="0"
                 d="m -8,0 6,159.5 c 0,0 0,3 2,3 2,0 2,-3 2,-3 L 8,0"
                 id="path3584" />
              <path
                 style="fill:#843511;stroke:none"
                 inkscape:connector-curvature="0"
                 d="M -4,0 0,109.5 4,0"
                 id="path3586" />
              <g
                 transform="matrix(0.9799247,0.19936793,-0.19936793,0.9799247,0,0)"
                 id="g3588">
                <path
                   inkscape:connector-curvature="0"
                   d="m -4.5,53.5 c -5,21.5 6,36 0.5,55 -5.5,19 3,32 4,40 1,8 -5,11.5 -3,13 C -1,163 5,158 5.5,147 6,136 -1.5,131.25 5,108 11.5,84.75 1,77 8,56"
                   id="path3590" />
                <path
                   style="fill:#843511;stroke:none"
                   inkscape:connector-curvature="0"
                   d="M -1,58 C -4,79 6,90.5 0,109 8,95 -2,81 3,59"
                   id="path3592" />
              </g>
            </g>
            <use
               height="1052.3622"
               width="744.09448"
               y="0"
               x="0"
               xlink:href="#2rays"
               transform="scale(-1,-1)"
               id="use3594" />
          </g>
          <use
             height="1052.3622"
             width="744.09448"
             y="0"
             x="0"
             xlink:href="#4rays"
             transform="matrix(0,1,-1,0,0,0)"
             id="use3596" />
        </g>
        <use
           height="1052.3622"
           width="744.09448"
           y="0"
           x="0"
           xlink:href="#8rays"
           transform="matrix(0.70710678,0.70710678,-0.70710678,0.70710678,0,0)"
           id="use3598" />
      </g>
      <use
         height="1052.3622"
         width="744.09448"
         y="0"
         x="0"
         xlink:href="#16rays"
         transform="matrix(0.92387953,0.38268343,-0.38268343,0.92387953,0,0)"
         id="use3600" />
      <circle
         style="stroke-width:1"
         sodipodi:ry="65"
         sodipodi:rx="65"
         sodipodi:cy="0"
         sodipodi:cx="0"
         cy="0"
         cx="0"
         d="M 65,0 C 65,35.898509 35.898509,65 0,65 -35.898509,65 -65,35.898509 -65,0 c 0,-35.898509 29.101491,-65 65,-65 35.898509,0 65,29.101491 65,65 z"
         r="65"
         id="circle3602" />
      <g
         style="fill:#843511;stroke:none"
         id="face_right">
        <path
           inkscape:connector-curvature="0"
           id="eyebrow_nose"
           d="M 41,-14 C 29.5,-24 15,-25.5 7,-18 A 140,50 10 0 0 8.5,8.5 C 8,8.5 7,9 6.5,9.5 A 80,50 10 0 1 4,-19 c 11,-9 26,-10 37,5" />
        <path
           inkscape:connector-curvature="0"
           id="uppalpebra"
           d="m 23,-17 c -6.5,0 -8,1.5 -11,4 -3,2.5 -4.5,2 -5,2.5 -0.5,0.5 0,2 1,1.5 1,-0.5 3,-1.5 6,-4 3,-2.5 6,-2.5 9,-2.5 9,0 14,7.5 15,7 C 39,-9 33,-17 23,-17" />
        <path
           inkscape:connector-curvature="0"
           id="upeyecontour"
           d="M 34.5,-8.5 C 28,-15.5 16,-16 11,-8 h 2 c 5,-8 17,-4.5 18,-1 v 1" />
        <circle
           sodipodi:ry="4.5"
           sodipodi:rx="4.5"
           sodipodi:cy="-9"
           sodipodi:cx="22"
           id="pupil"
           cx="22"
           cy="-9"
           r="4.5"
           d="m 26.5,-9 c 0,2.4852814 -2.014719,4.5 -4.5,4.5 -2.485281,0 -4.5,-2.0147186 -4.5,-4.5 0,-2.485281 2.014719,-4.5 4.5,-4.5 2.485281,0 4.5,2.014719 4.5,4.5 z" />
        <path
           inkscape:connector-curvature="0"
           id="loweyecontour"
           d="m 11,-8 c 5,4.5 16,5 23.5,-0.5 L 31,-9 c -5,5.5 -13,5 -18,1 v -1" />
        <path
           inkscape:connector-curvature="0"
           id="lowpalpebra"
           d="M 35,-6 C 26.5,0.5 18,0 13,-3 8,-6 8,-7 9,-7 c 1,0 2,1 6,3 4,2 10,2 20,-2" />
        <path
           inkscape:connector-curvature="0"
           id="nose"
           d="m 10.5,9 a 3,3 0 1 1 -4,3 C 6,13 4,16 0,16 h -1 l 1,1.5 c 1,0 4,0 6,-1.5 a 4.5,4.5 0 1 0 4.5,-7" />
        <path
           inkscape:connector-curvature="0"
           id="uplip"
           d="M 16.5,30 C 12,27 10,22.5 5,22.5 4,22.5 2,23 0,24 h -1 l 1,1.5 c 2,0 5,-2.5 8.5,-0.5 3.5,2 5.5,4 8,5" />
        <path
           inkscape:connector-curvature="0"
           id="midlip"
           d="M 15,30 C 5,27 3,29 0,29 h -1 l 1,2 c 4,0 6,-3 15,-1" />
        <path
           inkscape:connector-curvature="0"
           id="path3614"
           d="M 16.5,30 C 5.5,29 9,35.5 0,35.5 H -1 L 0,37 c 11,0 6,-6 16.5,-7" />
        <path
           inkscape:connector-curvature="0"
           id="chin"
           d="M 9,46 A 9,9 0 0 0 -9,46 9.25,9.25 0 0 1 9,46" />
      </g>
      <use
         height="1052.3622"
         width="744.09448"
         y="0"
         x="0"
         xlink:href="#face_right"
         transform="scale(-1,1)"
         id="use3617" />
    </g>
  </g>
  <g
     inkscape:label="Outline"
     inkscape:groupmode="layer"
     id="outline"
     transform="matrix(5.1073859,0,0,5.1073859,-9.7996864,-10.10181)">
    <path
       style="fill:none;stroke:#000000;stroke-width:4"
       d="m 3.9187284,3.9778826 182.1625416,0 -3.99459,92.7325464 C 178.7769,173.54556 134.69793,196.01693 95,196.01693 c -39.697059,0 -84.977417,-26.42184 -87.662072,-99.265169 L 3.9187284,3.9778826 z"
       id="path2384"
       sodipodi:nodetypes="ccszsc"
       inkscape:label="Outline" />
  </g>
</svg>
